X:1
T:Babler, 11.11.11 D
T:Babler, 11.11.11 D
T:Theodore Edson Perkins, 1868
T:Public Domain Courtesy of the Cyber Hymnal™
C:Theodore Edson Perkins, 1868
Z:Public Domain
Z:Courtesy of the Cyber Hymnal™
%%score ( 1 2 ) ( 3 4 )
L:1/8
Q:1/4=140
M:3/4
K:Bb
V:1 treble 
V:2 treble 
V:3 bass 
V:4 bass 
V:1
 [DF]2 | [DF]2 [B,D]2 [CE]2 | [DF]2 [EG]2 [EA]2 | [DB]2 [EA]2 [FB]2 | [Fc]4 [Fd]2 | %5
 [Ge]2 [Ge]2 [Ge]2 | [Fd]2 [Ec]2 [DB]2 | [FA]2 [=EB]2 [EG]2 | F4 [DF]2 | [DF]2 [B,D]2 [CE]2 | %10
 [DF]2 [EG]2 [EA]2 | [DB]2 [EA]2 [FB]2 | [Fc]4 [Fd]2 | [Ge]2 [Ge]2 [Ge]2 | [Fd]2 [Ec]2 [DB]2 | %15
 ([FB][Gc]) [Fd]2 [Ec]2 | [DB]4 ([DB]>[Ec]) | [DB]2 [DF]2 ([DB]>[Ec]) | [DB]2 [DF]2 [DB]2 | %19
 [Fd]2 [Ec]2 [DB]2 | [Fc]4 [Fd]2 | [Ge]2 [Ge]2 [Ge]2 | [Fd]2 [Ec]2 [DB]2 | ([FB][Gc]) [Fd]2 [Ec]2 | %24
 [DB]4 |] %25
V:2
 x2 | x6 | x6 | x6 | x6 | x6 | x6 | x6 | F4 x2 | x6 | x6 | x6 | x6 | x6 | x6 | x6 | x6 | x6 | x6 | %19
 x6 | x6 | x6 | x6 | x6 | x4 |] %25
V:3
 [B,,B,]2 | [B,,B,]2 [B,,B,]2 [B,,B,]2 | [B,,B,]2 [E,B,]2 [C,F,]2 | [B,,F,]2 [B,,F,]2 [D,B,]2 | %4
 [F,A,]4 B,2 | [E,B,]2 [E,B,]2 [E,B,]2 | B,2 [F,A,]2 [B,,B,]2 | [C,F,]2 [C,G,]2 [C,B,]2 | %8
 [F,A,]4 [B,,B,]2 | [B,,F,]2 [B,,B,]2 [B,,F,]2 | [B,,B,]2 [E,B,]2 [C,F,]2 | %11
 [B,,F,]2 [C,F,]2 [D,B,]2 | [F,A,]4 B,2 | [E,B,]2 [E,B,]2 [G,B,]2 | B,2 [F,A,]2 [G,B,]2 | %15
 B,2 [F,B,]2 [F,A,]2 | [B,,B,]4 [B,,F,]2 | [B,,F,]2 [B,,B,]2 [B,,F,]2 | %18
 [B,,F,]2 [B,,B,]2 [B,,F,]2 | [B,,F,]2 [B,,B,]2 [B,,B,]2 | [F,A,]4 B,2 | [E,B,]2 [E,B,]2 [G,B,]2 | %22
 B,2 [F,A,]2 [G,B,]2 | B,2 [F,B,]2 [F,A,]2 | [B,,B,]4 |] %25
V:4
 x2 | x6 | x6 | x6 | x4 B,2 | x6 | B,2 x4 | x6 | x6 | x6 | x6 | x6 | x4 B,2 | x6 | B,2 x4 | %15
 (D,E,) x4 | x6 | x6 | x6 | x6 | x4 B,2 | x6 | B,2 x4 | (D,E,) x4 | x4 |] %25

